X: 180
T: Winnifred Foley's Jig
T: Jig, F
L: 1/16
M: 6/8
K: F
|: c2B2| A2F2F2 D2F2F2| C2F2F2 A4c2| f2e2d2 c2B2A2| B2g2f2 e2c2B2| A2F2F2 D2F2F2| C2F2F2 A4c2| B2c2d2 c2d2e2| f6 f2:| 
|: g2f2| e2g2b2 e2g2e2| f2a2f2 c4f2| e2g2b2 e2g2e2| f2a2f2 c2B2A2| B2b2b2 B2g2g2| A2f2f2 f2g2f2| e2d2c2 B2A2G2| F6 F2:| 
D: Carl MacKenzie, A Cape Breton Classic, CLM 1007
